assets/svgs/time-grey/TimeGrey8.svg

<svg xmlns="http://www.w3.org/2000/svg" data-name="Layer 1" viewBox="0 0 128 128"><path d="M36.062 103a1.25 1.25 0 001.25-1.25v-43.5a1.25 1.25 0 10-2.5 0v20.5H25.5a1.25 1.25 0 000 2.5h9.312v20.5a1.25 1.25 0 001.25 1.25zM54.687 57a1.25 1.25 0 00-1.25 1.25v20.5h-9.6a1.25 1.25 0 000 2.5h9.6v20.5a1.25 1.25 0 102.5 0v-20.5h16.125v20.5a1.25 1.25 0 102.5 0v-43.5a1.25 1.25 0 10-2.5 0v20.5H55.937v-20.5a1.25 1.25 0 00-1.25-1.25zM91.937 57a1.25 1.25 0 00-1.25 1.25v20.5h-9.145a1.25 1.25 0 000 2.5h9.145v20.5a1.25 1.25 0 102.5 0v-20.5h9.313a1.25 1.25 0 000-2.5h-9.313v-20.5a1.25 1.25 0 00-1.25-1.25z"/><path d="M103.734 23.375h-3.484a1.25 1.25 0 000 2.5h3.484a9.025 9.025 0 019.016 9.015v10.531H22a1.25 1.25 0 000 2.5h90.75v55.814a9.025 9.025 0 01-9.016 9.015H24.266a9.025 9.025 0 01-9.016-9.015V34.89a9.025 9.025 0 019.016-9.015h10.776a1.25 1.25 0 001.25-1.25 7.639 7.639 0 0112.672-5.759 10.086 10.086 0 00-1.716 4.509h-4.373a1.25 1.25 0 000 2.5h8.608a7.657 7.657 0 01-7.54 6.4 1.25 1.25 0 000 2.5 10.16 10.16 0 0010.066-8.9h10.845a7.657 7.657 0 01-7.54 6.4 1.25 1.25 0 000 2.5 10.16 10.16 0 0010.066-8.9h10.846a7.658 7.658 0 01-7.54 6.4 1.25 1.25 0 000 2.5 10.16 10.16 0 0010.066-8.9H91.6a7.657 7.657 0 01-7.54 6.4 1.25 1.25 0 000 2.5 10.151 10.151 0 10-6.685-17.771 10.093 10.093 0 00-13.371 0 10.093 10.093 0 00-13.371 0 10.128 10.128 0 00-16.752 6.37h-9.615A11.528 11.528 0 0012.75 34.89v68.845a11.528 11.528 0 0011.516 11.515h79.469a11.528 11.528 0 0011.516-11.515V34.89a11.528 11.528 0 00-11.517-11.515zm-53.105-2.461a7.592 7.592 0 01.854 2.461h-1.709a7.592 7.592 0 01.855-2.461zm13.371 0a7.591 7.591 0 01.854 2.461h-1.709A7.592 7.592 0 0164 20.914zm13.371 0a7.592 7.592 0 01.854 2.461h-1.708a7.592 7.592 0 01.854-2.461zM91.6 23.375H80.752a10.086 10.086 0 00-1.716-4.509A7.631 7.631 0 0191.6 23.375zm-15.89-4.509a10.086 10.086 0 00-1.716 4.509h-6.61a10.086 10.086 0 00-1.716-4.509 7.608 7.608 0 0110.042 0zm-13.371 0a10.086 10.086 0 00-1.716 4.509H54.01a10.086 10.086 0 00-1.716-4.509 7.608 7.608 0 0110.042 0z"/></svg>

<svg id="Layer_1" data-name="Layer 1" xmlns="http://www.w3.org/2000/svg" viewBox="0 0 128 128"><title>DATE_1</title><path d="M36.062,103a1.25,1.25,0,0,0,1.25-1.25V58.25a1.25,1.25,0,1,0-2.5,0v20.5H25.5a1.25,1.25,0,0,0,0,2.5h9.312v20.5A1.25,1.25,0,0,0,36.062,103Z"/><path d="M54.687,57a1.25,1.25,0,0,0-1.25,1.25v20.5h-9.6a1.25,1.25,0,0,0,0,2.5h9.6v20.5a1.25,1.25,0,1,0,2.5,0V81.25H72.062v20.5a1.25,1.25,0,1,0,2.5,0V58.25a1.25,1.25,0,1,0-2.5,0v20.5H55.937V58.25A1.25,1.25,0,0,0,54.687,57Z"/><path d="M91.937,57a1.25,1.25,0,0,0-1.25,1.25v20.5H81.542a1.25,1.25,0,0,0,0,2.5h9.145v20.5a1.25,1.25,0,1,0,2.5,0V81.25H102.5a1.25,1.25,0,0,0,0-2.5H93.187V58.25A1.25,1.25,0,0,0,91.937,57Z"/><path d="M103.734,23.375H100.25a1.25,1.25,0,0,0,0,2.5h3.484a9.025,9.025,0,0,1,9.016,9.015V45.421H22a1.25,1.25,0,0,0,0,2.5h90.75v55.814a9.025,9.025,0,0,1-9.016,9.015H24.266a9.025,9.025,0,0,1-9.016-9.015V34.89a9.025,9.025,0,0,1,9.016-9.015H35.042a1.25,1.25,0,0,0,1.25-1.25,7.639,7.639,0,0,1,12.672-5.759,10.086,10.086,0,0,0-1.716,4.509H42.875a1.25,1.25,0,0,0,0,2.5h8.608a7.657,7.657,0,0,1-7.54,6.4,1.25,1.25,0,0,0,0,2.5,10.16,10.16,0,0,0,10.066-8.9H64.854a7.657,7.657,0,0,1-7.54,6.4,1.25,1.25,0,0,0,0,2.5,10.16,10.16,0,0,0,10.066-8.9H78.226a7.658,7.658,0,0,1-7.54,6.4,1.25,1.25,0,0,0,0,2.5,10.16,10.16,0,0,0,10.066-8.9H91.6a7.657,7.657,0,0,1-7.54,6.4,1.25,1.25,0,0,0,0,2.5,10.151,10.151,0,1,0-6.685-17.771,10.093,10.093,0,0,0-13.371,0,10.093,10.093,0,0,0-13.371,0,10.128,10.128,0,0,0-16.752,6.37H24.266A11.528,11.528,0,0,0,12.75,34.89v68.845A11.528,11.528,0,0,0,24.266,115.25h79.469a11.528,11.528,0,0,0,11.516-11.515V34.89A11.528,11.528,0,0,0,103.734,23.375ZM50.629,20.914a7.592,7.592,0,0,1,.854,2.461H49.774A7.592,7.592,0,0,1,50.629,20.914Zm13.371,0a7.591,7.591,0,0,1,.854,2.461H63.145A7.592,7.592,0,0,1,64,20.914Zm13.371,0a7.592,7.592,0,0,1,.854,2.461H76.517A7.592,7.592,0,0,1,77.371,20.914ZM91.6,23.375H80.752a10.086,10.086,0,0,0-1.716-4.509A7.631,7.631,0,0,1,91.6,23.375Zm-15.89-4.509a10.086,10.086,0,0,0-1.716,4.509h-6.61a10.086,10.086,0,0,0-1.716-4.509,7.608,7.608,0,0,1,10.042,0Zm-13.371,0a10.086,10.086,0,0,0-1.716,4.509H54.01a10.086,10.086,0,0,0-1.716-4.509,7.608,7.608,0,0,1,10.042,0Z"/></svg>
